X: 26488
T: Michael Gallagher's Fancy
R: reel
M: 4/4
K: Dmajor
|:D2(3FED DAFA|D2FD EFGA|D2(3FED ADFD|G2AG EFGE:|
|:A~D3 ADFD|A~D3 EFGE|A~D3 ADFD|G2AG EFGE:|
|:~F2DF AFD2|~F2DF EFGE|~F2DF AFDF|G2BG EFGE:|
|:A4 B4|A2AG EFGE|1 A4 B2A2|G2AG EFGE|2 A4dcAF|G2AG EFGE:|
|:F~A3 FAdA|FAAF GFED|1 F~A3 FAdA|
~G2AG EFGE:|2 F~A3 d3F|G2AG EFGE||
|:(3.f.g.f df e2de|(3.f.g.f df efge|(3.f.g.f df e2de|g2bg efge:|
|:d2fd adfd|d2fd efge|d2fd adfd|~g2f2 efge:|
|:fdda fdad|fddf efge|fdda fdad|~g2f2 efge:|
|:d2cA BGAG|F~B3 GABc|d2cA (3.B.c.d AF|~G2AG EFGE:|
|:dAdA cAcA|dcd2 efge|dAdA cAcA|~G2AG EFGE:|
|:afdf afdf|afdf efge|afdf a2df|~g2f2 efge:|
|:(3.A.c.A Fc A2Fc|(3.A.c.A FA EFGE|1 (3.A.c.A Fc A2EF|
~G2AG EFGE:|2 (3.A.c.A Fc dcAF|~G2AG EFGE||

